icon-svg/twinkly-dots.svg

<svg xmlns="http://www.w3.org/2000/svg" viewBox="0 0 24 24"><path fill="#44739e" d="M21.639 17.126a.362.362 0 0 0-.266.608l-.072-.04a4.2 4.2 0 0 1-.787.879.362.362 0 0 0-.62.255.35.35 0 0 0 .037.159 4.3 4.3 0 0 1-.948.418.362.362 0 0 0-.693.143 2.8 2.8 0 0 1-1.1-.077v-.03a.362.362 0 0 0-.572-.296 1.9 1.9 0 0 1-.5-1.021.362.362 0 0 0-.043-.71 2.8 2.8 0 0 1 .173-.83 2 2 0 0 1 .2-.39.362.362 0 0 0 .56-.3.36.36 0 0 0-.068-.211 6 6 0 0 1 .869-.5q.232-.114.478-.247a.362.362 0 0 0 .641-.231.4.4 0 0 0-.028-.141 5.4 5.4 0 0 0 .801-.675c.02-.02.133-.137.294-.335a.36.36 0 0 0 .191.055.362.362 0 0 0 .236-.637 7.2 7.2 0 0 0 .679-1.284h.046a.363.363 0 0 0 .18-.677 5 5 0 0 0 .183-1.342.362.362 0 0 0-.056-.714 5 5 0 0 0-.071-.362 4.6 4.6 0 0 0-.284-.829.362.362 0 0 0-.188-.672.4.4 0 0 0-.159.037 5.3 5.3 0 0 0-.866-1.017.362.362 0 0 0-.283-.588.36.36 0 0 0-.278.128 7 7 0 0 0-1.04-.626.3.3 0 0 0 .006-.062.362.362 0 0 0-.657-.21 7 7 0 0 0-1.323-.316.362.362 0 0 0-.717-.068 7 7 0 0 0-.922.02 6 6 0 0 0-.5.071.363.363 0 0 0-.7.141v.048a2.9 2.9 0 0 0-1.111.7.362.362 0 0 0-.526.323.37.37 0 0 0 .113.263 2.95 2.95 0 0 0-.283 1.395.363.363 0 0 0 .075.707 6 6 0 0 0 .152.621 4 4 0 0 0 .278.689.362.362 0 0 0 .237.636.36.36 0 0 0 .162-.039 6.6 6.6 0 0 0 .683.683q.133.12.261.24a.35.35 0 0 0-.045.174.363.363 0 0 0 .363.362.4.4 0 0 0 .142-.029 2.7 2.7 0 0 1 .417.816 3.6 3.6 0 0 1 .138.628.362.362 0 0 0 .029.687 4.7 4.7 0 0 1-.283 1.416l-.06.153a.4.4 0 0 0-.089-.011.362.362 0 0 0-.231.641 3.4 3.4 0 0 1-.854.947.362.362 0 0 0-.633.241.4.4 0 0 0 .013.1 3.1 3.1 0 0 1-1.311.184.362.362 0 0 0-.683-.143 1.9 1.9 0 0 1-.665-.4 1.6 1.6 0 0 1-.243-.294.362.362 0 0 0-.216-.653h-.039a8 8 0 0 1-.116-1.364.362.362 0 0 0-.02-.709l-.038-1.501a.362.362 0 0 0-.015-.7l-.012-.549c-.009-.468-.017-.841-.026-1.147a.362.362 0 0 0-.03-.7 3.3 3.3 0 0 0-.183-.977 6 6 0 0 0-.228-.561.363.363 0 0 0-.257-.619.4.4 0 0 0-.068.007 6.6 6.6 0 0 0-.971-1.275.35.35 0 0 0 .049-.18.361.361 0 0 0-.583-.287 2.96 2.96 0 0 0-1.401-.627.362.362 0 0 0-.709.068 2.32 2.32 0 0 0-1.149.946l-.022.033a.4.4 0 0 0-.13-.024.363.363 0 0 0-.2.664 3.4 3.4 0 0 0-.232.926 3 3 0 0 0 .01.65.362.362 0 0 0 .155.689h.011a5.4 5.4 0 0 0 .82 1.414.362.362 0 0 0 .284.588.35.35 0 0 0 .159-.037 4.4 4.4 0 0 0 .693.67 3 3 0 0 1 .335.294.36.36 0 0 0-.077.222.363.363 0 0 0 .363.363.4.4 0 0 0 .144-.031 5 5 0 0 1 .645 1.344.362.362 0 0 0 .147.687 4 4 0 0 1 0 .976 6 6 0 0 1-.029.221h-.011a.362.362 0 0 0-.147.694 3.3 3.3 0 0 1-.4.848.362.362 0 0 0-.442.512 3 3 0 0 1-.276.222 3 3 0 0 1-.609.327.362.362 0 0 0-.69.154v.024a3.8 3.8 0 0 1-1.286-.048.361.361 0 1 0-.023.16 4 4 0 0 0 1.354.048.362.362 0 0 0 .677-.174 3 3 0 0 0 .668-.355 3 3 0 0 0 .289-.232.363.363 0 0 0 .472-.547 3.5 3.5 0 0 0 .428-.9.362.362 0 0 0 .154-.682q.02-.142.032-.243a4 4 0 0 0 0-1.026.362.362 0 0 0-.146-.694 5.2 5.2 0 0 0-.674-1.401.362.362 0 0 0-.274-.6.4.4 0 0 0-.16.037 3.4 3.4 0 0 0-.36-.318 4.2 4.2 0 0 1-.668-.645.362.362 0 0 0-.292-.594.4.4 0 0 0-.157.035 5.3 5.3 0 0 1-.783-1.358.362.362 0 0 0-.169-.68 2.7 2.7 0 0 1-.008-.6 3.3 3.3 0 0 1 .224-.885h.048a.362.362 0 0 0 .266-.608 2.2 2.2 0 0 1 1.058-.908.362.362 0 0 0 .694-.068 2.8 2.8 0 0 1 1.293.586.362.362 0 0 0 .322.527.36.36 0 0 0 .205-.063 6.6 6.6 0 0 1 .941 1.216.362.362 0 0 0 .218.651.4.4 0 0 0 .118-.02q.122.264.214.528a3.2 3.2 0 0 1 .174.931.362.362 0 0 0 .03.705c.009.3.017.676.026 1.143l.012.546a.362.362 0 0 0 .016.709c.01.44.022.937.037 1.501a.363.363 0 0 0 .02.7 8 8 0 0 0 .123 1.417.362.362 0 0 0 .194.668.4.4 0 0 0 .066-.006 1.7 1.7 0 0 0 .282.345 2.1 2.1 0 0 0 .736.441v.01a.362.362 0 0 0 .7.135 3.3 3.3 0 0 0 1.414-.2.361.361 0 0 0 .634-.24.4.4 0 0 0-.013-.1 3.5 3.5 0 0 0 .923-1.017.4.4 0 0 0 .083.009.362.362 0 0 0 .234-.639q.035-.084.067-.172a4.8 4.8 0 0 0 .292-1.463.362.362 0 0 0-.03-.717 3.7 3.7 0 0 0-.144-.655 2.9 2.9 0 0 0-.439-.864.36.36 0 0 0 .088-.236.36.36 0 0 0-.362-.363.35.35 0 0 0-.21.068q-.129-.121-.26-.239a6 6 0 0 1-.666-.667.361.361 0 0 0-.381-.569 3.7 3.7 0 0 1-.267-.66 5 5 0 0 1-.145-.6.362.362 0 0 0-.072-.7 2.84 2.84 0 0 1 .259-1.301.4.4 0 0 0 .109.016.362.362 0 0 0 .288-.581 2.75 2.75 0 0 1 1.043-.653.362.362 0 0 0 .663-.181q.255-.048.487-.07a6.4 6.4 0 0 1 .91-.019.362.362 0 0 0 .679.064 7 7 0 0 1 1.295.307.3.3 0 0 0-.006.061.363.363 0 0 0 .657.211 7 7 0 0 1 1.028.623.4.4 0 0 0-.011.088.36.36 0 0 0 .363.362.35.35 0 0 0 .155-.035 5.2 5.2 0 0 1 .867 1.019.36.36 0 0 0-.076.222.363.363 0 0 0 .362.363h.033a4.4 4.4 0 0 1 .281.816q.042.176.069.349a.362.362 0 0 0 .054.689 5 5 0 0 1-.175 1.3h-.026a.362.362 0 0 0-.2.666 7 7 0 0 1-.671 1.276.4.4 0 0 0-.092-.012.362.362 0 0 0-.306.555c-.161.2-.274.316-.294.336a5.3 5.3 0 0 1-.783.657.361.361 0 0 0-.6.272.4.4 0 0 0 .01.086q-.247.133-.478.248a6 6 0 0 0-.92.534.362.362 0 0 0-.533.32.36.36 0 0 0 .051.184 2.2 2.2 0 0 0-.235.451 3 3 0 0 0-.188.906.362.362 0 0 0 .043.7 2.1 2.1 0 0 0 .562 1.14.362.362 0 0 0 .318.537.36.36 0 0 0 .312-.18 2.7 2.7 0 0 0 .776.107 4 4 0 0 0 .405-.024.361.361 0 0 0 .689-.142 4.4 4.4 0 0 0 1.02-.451.362.362 0 0 0 .584-.286.4.4 0 0 0-.019-.116 4.3 4.3 0 0 0 .831-.92.362.362 0 1 0 .205-.661Z"/></svg>

<?xml version="1.0" encoding="UTF-8"?>
<svg width="24px" fill="#44739e" height="24px" viewBox="0 0 24 24" version="1.1" xmlns="http://www.w3.org/2000/svg" xmlns:xlink="http://www.w3.org/1999/xlink">
            <path d="M 21.638,17.132 A 0.362,0.362 0 0 0 21.372,17.74 L 21.3,17.7 a 4.222,4.222 0 0 1 -0.787,0.879 0.362,0.362 0 0 0 -0.62,0.255 0.354,0.354 0 0 0 0.037,0.159 4.25,4.25 0 0 1 -0.947,0.417 0.362,0.362 0 0 0 -0.693,0.143 2.789,2.789 0 0 1 -1.1,-0.077 v -0.03 a 0.362,0.362 0 0 0 -0.572,-0.295 1.906,1.906 0 0 1 -0.5,-1.021 0.362,0.362 0 0 0 -0.043,-0.71 2.815,2.815 0 0 1 0.173,-0.83 2.123,2.123 0 0 1 0.2,-0.39 0.362,0.362 0 0 0 0.56,-0.3 0.364,0.364 0 0 0 -0.068,-0.211 5.9,5.9 0 0 1 0.869,-0.5 c 0.154,-0.077 0.314,-0.158 0.478,-0.247 A 0.362,0.362 0 0 0 18.928,14.711 0.366,0.366 0 0 0 18.9,14.57 5.369,5.369 0 0 0 19.7,13.895 c 0.02,-0.02 0.133,-0.137 0.294,-0.335 a 0.356,0.356 0 0 0 0.191,0.055 0.362,0.362 0 0 0 0.236,-0.637 7.191,7.191 0 0 0 0.679,-1.283 c 0.015,0 0.03,0 0.046,0 a 0.363,0.363 0 0 0 0.18,-0.677 5.142,5.142 0 0 0 0.183,-1.342 0.362,0.362 0 0 0 -0.056,-0.714 C 21.434,8.842 21.411,8.722 21.382,8.6 A 4.645,4.645 0 0 0 21.098,7.771 0.362,0.362 0 0 0 20.91,7.099 0.368,0.368 0 0 0 20.751,7.136 5.331,5.331 0 0 0 19.885,6.12 0.362,0.362 0 0 0 19.602,5.532 0.364,0.364 0 0 0 19.325,5.66 7.1,7.1 0 0 0 18.285,5.034 0.318,0.318 0 0 0 18.291,4.972 0.362,0.362 0 0 0 17.634,4.762 7.137,7.137 0 0 0 16.311,4.446 0.362,0.362 0 0 0 15.594,4.378 6.692,6.692 0 0 0 14.672,4.398 c -0.157,0.015 -0.325,0.038 -0.5,0.071 a 0.363,0.363 0 0 0 -0.7,0.141 0.388,0.388 0 0 0 0,0.048 2.917,2.917 0 0 0 -1.11,0.7 0.362,0.362 0 0 0 -0.526,0.323 0.365,0.365 0 0 0 0.113,0.263 2.948,2.948 0 0 0 -0.283,1.394 0.363,0.363 0 0 0 0.075,0.707 5.6,5.6 0 0 0 0.152,0.621 3.92,3.92 0 0 0 0.278,0.689 0.362,0.362 0 0 0 0.237,0.636 0.355,0.355 0 0 0 0.162,-0.039 6.564,6.564 0 0 0 0.682,0.683 c 0.088,0.08 0.176,0.159 0.261,0.24 a 0.349,0.349 0 0 0 -0.045,0.174 0.363,0.363 0 0 0 0.363,0.362 0.371,0.371 0 0 0 0.142,-0.029 2.741,2.741 0 0 1 0.417,0.816 3.547,3.547 0 0 1 0.138,0.627 0.362,0.362 0 0 0 0.029,0.687 4.709,4.709 0 0 1 -0.283,1.416 c -0.019,0.051 -0.039,0.1 -0.06,0.153 a 0.368,0.368 0 0 0 -0.089,-0.011 0.362,0.362 0 0 0 -0.231,0.641 3.392,3.392 0 0 1 -0.854,0.947 0.362,0.362 0 0 0 -0.632,0.241 0.385,0.385 0 0 0 0.013,0.1 A 3.111,3.111 0 0 1 11.11,17.183 0.362,0.362 0 0 0 10.427,17.04 1.928,1.928 0 0 1 9.762,16.64 1.556,1.556 0 0 1 9.519,16.346 0.362,0.362 0 0 0 9.303,15.693 H 9.264 A 7.931,7.931 0 0 1 9.148,14.329 0.362,0.362 0 0 0 9.128,13.62 C 9.113,13.06 9.101,12.564 9.09,12.12 A 0.362,0.362 0 0 0 9.075,11.42 Q 9.069,11.12 9.063,10.871 C 9.054,10.403 9.046,10.03 9.037,9.724 A 0.362,0.362 0 0 0 9.007,9.024 3.28,3.28 0 0 0 8.824,8.047 5.942,5.942 0 0 0 8.596,7.486 0.363,0.363 0 0 0 8.339,6.867 0.382,0.382 0 0 0 8.271,6.874 6.633,6.633 0 0 0 7.3,5.6 0.354,0.354 0 0 0 7.349,5.42 0.361,0.361 0 0 0 6.766,5.133 2.962,2.962 0 0 0 5.366,4.506 0.362,0.362 0 0 0 4.657,4.574 2.32,2.32 0 0 0 3.508,5.52 L 3.486,5.553 a 0.371,0.371 0 0 0 -0.13,-0.024 0.363,0.363 0 0 0 -0.2,0.664 3.431,3.431 0 0 0 -0.232,0.925 2.872,2.872 0 0 0 0.01,0.65 0.362,0.362 0 0 0 0.155,0.689 H 3.1 a 5.412,5.412 0 0 0 0.82,1.414 0.362,0.362 0 0 0 0.284,0.588 0.354,0.354 0 0 0 0.159,-0.037 4.4,4.4 0 0 0 0.693,0.67 3.119,3.119 0 0 1 0.335,0.294 0.358,0.358 0 0 0 -0.077,0.222 0.363,0.363 0 0 0 0.363,0.363 0.348,0.348 0 0 0 0.144,-0.031 5.065,5.065 0 0 1 0.645,1.343 0.362,0.362 0 0 0 0.146,0.687 3.984,3.984 0 0 1 0,0.976 C 6.605,15.007 6.596,15.082 6.583,15.167 H 6.572 a 0.362,0.362 0 0 0 -0.146,0.694 3.32,3.32 0 0 1 -0.4,0.848 0.362,0.362 0 0 0 -0.442,0.512 2.7,2.7 0 0 1 -0.276,0.222 2.868,2.868 0 0 1 -0.609,0.327 0.362,0.362 0 0 0 -0.69,0.154 v 0.024 A 3.843,3.843 0 0 1 2.723,17.9 0.361,0.361 0 1 0 2.7,18.06 3.98,3.98 0 0 0 4.054,18.108 0.362,0.362 0 0 0 4.731,17.934 3.024,3.024 0 0 0 5.399,17.579 3.085,3.085 0 0 0 5.688,17.347 0.363,0.363 0 0 0 6.16,16.8 3.5,3.5 0 0 0 6.587,15.9 0.362,0.362 0 0 0 6.741,15.218 c 0.014,-0.094 0.024,-0.177 0.032,-0.243 a 4.144,4.144 0 0 0 0,-1.026 0.362,0.362 0 0 0 -0.146,-0.694 v 0 A 5.231,5.231 0 0 0 5.954,11.855 0.362,0.362 0 0 0 5.68,11.255 0.369,0.369 0 0 0 5.52,11.292 3.4,3.4 0 0 0 5.16,10.974 4.173,4.173 0 0 1 4.492,10.329 0.362,0.362 0 0 0 4.2,9.735 0.372,0.372 0 0 0 4.043,9.77 5.252,5.252 0 0 1 3.26,8.412 0.362,0.362 0 0 0 3.091,7.732 2.718,2.718 0 0 1 3.083,7.132 3.283,3.283 0 0 1 3.307,6.248 0.375,0.375 0 0 0 3.355,6.248 0.362,0.362 0 0 0 3.621,5.64 2.2,2.2 0 0 1 4.679,4.732 0.362,0.362 0 0 0 5.373,4.664 2.783,2.783 0 0 1 6.665,5.25 0.362,0.362 0 0 0 6.987,5.777 0.36,0.36 0 0 0 7.192,5.714 6.552,6.552 0 0 1 8.133,6.929 0.362,0.362 0 0 0 8.351,7.58 0.352,0.352 0 0 0 8.469,7.56 C 8.55,7.736 8.622,7.912 8.683,8.088 a 3.149,3.149 0 0 1 0.174,0.931 0.362,0.362 0 0 0 0.03,0.705 c 0.009,0.3 0.017,0.676 0.026,1.143 q 0.006,0.253 0.012,0.546 a 0.362,0.362 0 0 0 0.016,0.709 c 0.01,0.44 0.022,0.936 0.037,1.5 a 0.363,0.363 0 0 0 0.02,0.7 7.757,7.757 0 0 0 0.123,1.417 0.362,0.362 0 0 0 0.194,0.668 0.368,0.368 0 0 0 0.066,-0.006 1.714,1.714 0 0 0 0.282,0.345 2.064,2.064 0 0 0 0.736,0.441 v 0.01 a 0.362,0.362 0 0 0 0.7,0.135 3.275,3.275 0 0 0 1.414,-0.2 0.361,0.361 0 0 0 0.633,-0.24 0.349,0.349 0 0 0 -0.013,-0.1 3.453,3.453 0 0 0 0.923,-1.017 0.384,0.384 0 0 0 0.083,0.009 0.362,0.362 0 0 0 0.234,-0.639 c 0.023,-0.056 0.046,-0.113 0.067,-0.172 a 4.829,4.829 0 0 0 0.292,-1.463 0.362,0.362 0 0 0 -0.03,-0.717 3.655,3.655 0 0 0 -0.144,-0.654 2.891,2.891 0 0 0 -0.439,-0.864 0.358,0.358 0 0 0 0.088,-0.236 0.362,0.362 0 0 0 -0.362,-0.363 0.354,0.354 0 0 0 -0.21,0.068 c -0.085,-0.081 -0.173,-0.16 -0.26,-0.239 A 6.253,6.253 0 0 1 12.71,9.838 0.361,0.361 0 0 0 12.329,9.269 a 3.655,3.655 0 0 1 -0.267,-0.66 5.205,5.205 0 0 1 -0.145,-0.6 0.362,0.362 0 0 0 -0.072,-0.7 2.844,2.844 0 0 1 0.259,-1.3 0.388,0.388 0 0 0 0.109,0.016 0.362,0.362 0 0 0 0.288,-0.581 2.748,2.748 0 0 1 1.042,-0.653 0.362,0.362 0 0 0 0.663,-0.181 c 0.169,-0.033 0.333,-0.055 0.487,-0.07 a 6.372,6.372 0 0 1 0.91,-0.019 0.362,0.362 0 0 0 0.679,0.064 7.113,7.113 0 0 1 1.295,0.307 0.308,0.308 0 0 0 -0.006,0.061 0.363,0.363 0 0 0 0.657,0.211 6.9,6.9 0 0 1 1.028,0.623 0.366,0.366 0 0 0 -0.011,0.088 0.362,0.362 0 0 0 0.362,0.362 0.349,0.349 0 0 0 0.155,-0.035 5.189,5.189 0 0 1 0.867,1.018 0.357,0.357 0 0 0 -0.076,0.222 0.363,0.363 0 0 0 0.362,0.363 h 0.033 a 4.354,4.354 0 0 1 0.281,0.816 c 0.028,0.117 0.051,0.234 0.069,0.349 a 0.362,0.362 0 0 0 0.054,0.689 4.928,4.928 0 0 1 -0.175,1.3 h -0.026 a 0.362,0.362 0 0 0 -0.2,0.666 6.972,6.972 0 0 1 -0.671,1.275 0.346,0.346 0 0 0 -0.092,-0.012 0.362,0.362 0 0 0 -0.306,0.555 c -0.161,0.2 -0.274,0.316 -0.294,0.336 a 5.284,5.284 0 0 1 -0.782,0.657 0.361,0.361 0 0 0 -0.6,0.272 0.4,0.4 0 0 0 0.01,0.086 c -0.164,0.09 -0.324,0.17 -0.478,0.248 a 5.812,5.812 0 0 0 -0.92,0.534 0.362,0.362 0 0 0 -0.533,0.32 0.361,0.361 0 0 0 0.051,0.184 2.172,2.172 0 0 0 -0.235,0.451 2.978,2.978 0 0 0 -0.188,0.906 0.362,0.362 0 0 0 0.043,0.7 2.089,2.089 0 0 0 0.562,1.139 0.362,0.362 0 0 0 0.318,0.537 0.361,0.361 0 0 0 0.312,-0.18 2.681,2.681 0 0 0 0.776,0.107 3.542,3.542 0 0 0 0.405,-0.024 0.361,0.361 0 0 0 0.689,-0.142 4.393,4.393 0 0 0 1.019,-0.45 0.362,0.362 0 0 0 0.584,-0.286 0.371,0.371 0 0 0 -0.019,-0.116 4.33,4.33 0 0 0 0.831,-0.92 0.362,0.362 0 1 0 0.205,-0.661 z"/>

</svg>
